X: 305655
M: 2/4
L: 1/16
K: G
d2BG B2G2 | D2DD "_...."!/!D4 | c2AF A2FF | D2DD "_...."!/!D4 |\
d2BG B2G2 | D2DD "_...."!/!D4 | d2dd "^...."!/!d4 | [B6G6] H|]
d2 |\
.d2(3(gfg) b2g2 | d2(3(gfg) b2g2 | d2(3(a^ga) c'2f2 | g2(3(bab) c'4 |\
.d2(3(gfg) b2g2 | e2(3(a^ga) c'2f2 | b2(3(c'bc') d'2d2 | g6 "^D.C."y|]
z2 |\
_B2BB B2AG | ^F2G2 "_>"A4 | c2cc c2BA | B2c2 d4 |\
d4 dcBd | c4 cBAc | B4 BAGF | D6 "^D.C."y |]


